img/Pghone icon.svg

<svg width="30" height="30" viewBox="0 0 30 30" fill="none" xmlns="http://www.w3.org/2000/svg">
<path d="M14.6716 22.4705C13.6258 23.098 12.1318 22.7693 11.5043 21.7832L7.02222 14.5223C6.39473 13.5064 6.72342 12.1617 7.73935 11.5342L7.44055 11.0263L7.73935 11.5342L11.6537 9.1438L8.21744 3.55615L4.3031 5.97647C0.478397 8.33703 0.597919 14.5522 4.6019 21.0362C6.42461 24.0243 8.75529 26.3848 11.1158 27.6996C12.5202 28.4765 13.8648 28.8649 15.1497 28.8649C16.2254 28.8649 17.2413 28.596 18.1378 28.0283L21.9027 25.6976L18.4664 20.1099L14.6716 22.4705ZM17.5103 27.0422C15.4784 28.2972 13.2075 27.5502 11.6836 26.6836C9.5023 25.4585 7.32103 23.2474 5.58796 20.4087C1.94254 14.4924 1.64374 8.96452 4.90071 6.93265L4.6019 6.42468L4.90071 6.93265L7.82899 5.13982L10.0401 8.72547L7.11186 10.5183C5.55808 11.4745 5.05011 13.5362 6.03616 15.1199L10.5182 22.351C11.4744 23.9048 13.6856 24.4127 15.2692 23.4267L18.0481 21.6936L20.2593 25.2793L17.5103 27.0422Z" fill="black"/>
<path d="M18.7057 11.9823C19.5723 13.2971 19.7814 14.9405 19.2735 16.4644L20.379 16.823C21.0065 14.9704 20.7376 12.9684 19.6918 11.3549C18.5862 9.68155 16.7336 8.60585 14.7316 8.48633L14.6719 9.65167C16.3153 9.71143 17.7794 10.578 18.7057 11.9823Z" fill="black"/>
<path d="M15.5082 4.60156L15.3887 5.7669C18.1078 6.06571 20.4982 7.55973 21.9923 9.86053C23.4265 12.0717 23.8448 14.7908 23.0978 17.3306L24.2333 17.6593C25.0401 14.7908 24.5919 11.7131 22.9783 9.23304C21.2751 6.63344 18.556 4.93025 15.5082 4.60156Z" fill="black"/>
<path d="M25.8764 7.29103C23.6951 3.94441 20.1991 1.73326 16.2549 1.16553L16.1055 2.33087C19.721 2.83883 22.9182 4.87071 24.9202 7.91852C26.8624 10.9066 27.46 14.6117 26.5338 18.048L27.6692 18.3468C28.6254 14.6117 27.9979 10.5779 25.8764 7.29103Z" fill="black"/>
</svg>

<svg width="30" height="30" fill="none" xmlns="http://www.w3.org/2000/svg"><path d="M14.672 22.47c-1.046.628-2.54.3-3.168-.687l-4.482-7.26a2.182 2.182 0 01.717-2.989l-.298-.508.298.508 3.915-2.39-3.437-5.588-3.914 2.42c-3.825 2.361-3.705 8.576.299 15.06 1.823 2.988 4.153 5.349 6.514 6.664 1.404.777 2.749 1.165 4.034 1.165 1.075 0 2.091-.269 2.988-.837l3.765-2.33-3.437-5.588-3.794 2.36zm2.838 4.572c-2.032 1.255-4.303.508-5.826-.358-2.182-1.226-4.363-3.437-6.096-6.275-3.645-5.917-3.944-11.444-.687-13.476l-.3-.508.3.508L7.829 5.14l2.211 3.585-2.928 1.793a3.336 3.336 0 00-1.076 4.602l4.482 7.231c.956 1.554 3.168 2.062 4.751 1.076l2.78-1.733 2.21 3.585-2.749 1.763zm1.196-15.06a5.156 5.156 0 01.567 4.482l1.106.359a6.307 6.307 0 00-.687-5.468 6.437 6.437 0 00-4.96-2.869l-.06 1.166c1.643.06 3.107.926 4.034 2.33z" fill="#000"/><path d="M15.508 4.602l-.12 1.165c2.72.299 5.11 1.793 6.604 4.094a9.03 9.03 0 011.106 7.47l1.135.328c.807-2.868.359-5.946-1.255-8.426-1.703-2.6-4.422-4.303-7.47-4.631z" fill="#000"/><path d="M25.876 7.291a13.794 13.794 0 00-9.621-6.125l-.15 1.165a12.63 12.63 0 018.815 5.588 12.624 12.624 0 011.614 10.129l1.135.299A14.03 14.03 0 0025.876 7.29z" fill="#000"/></svg>
